TH1/histmargin.svg

<svg xmlns="http://www.w3.org/2000/svg" viewBox="0 0 1200 800" preserveAspectRatio="none" width="1200" height="800">
 <path d="M0,0H1200V800H0Z" style="fill: white;"></path>
 <g>
  <g transform="translate(120,80)">
   <path d="M0,0H960V640H0Z" style="fill: white; stroke: black; stroke-width: 1;"></path>
   <svg x="0" y="0" overflow="hidden" width="960" height="640" viewBox="0 0 960 640">
    <g>
     <path d="M0,640h19v-1h10v1h38v-1h10v-1h19v-1h10v1h9v-3h10v-2h19v-4h19v-5h10v-3h9v-8h10v3h10v-10h9v4h10v-12h9v-15h20v-3h9v-25h10v-4h9v-8h10v-11h10v-33h9v-2h10v-18h9v-9h10v-25h10v-10h9v-36h10v-24h19v-28h10v-18h9v-49h10v22h9v-37h10v31h10v-37h9v-19h10v12h9v17h10v-25h10v-31h9v51h10v2h9v8h10v3h10v34h9v12h10v8h9v18h10v11h10v7h9v25h10v30h9v9h10v15h10v44h9v-4h10v20h9v17h10v11h10v15h9v13h10v16h9v-1h10v15h10v4h9v11h10v2h9v8h10v6h10v-6h9v8h10v4h9v3h20v2h19v5h9v-3h10v1h10v2h28v1h58" style="stroke-linejoin: miter; stroke: #00009a; stroke-width: 1; fill: none;"></path>
    </g>
   </svg>
   <g>
    <g transform="translate(0,640)">
     <path d="M0,0h960M0,-24v24m24,-12v12m24,-12v12m24,-12v12m24,-12v12m24,-24v24m24,-12v12m24,-12v12m24,-12v12m24,-12v12m24,-24v24m24,-12v12m24,-12v12m24,-12v12m24,-12v12m24,-24v24m24,-12v12m24,-12v12m24,-12v12m24,-12v12m24,-24v24m24,-12v12m24,-12v12m24,-12v12m24,-12v12m24,-24v24m24,-12v12m24,-12v12m24,-12v12m24,-12v12m24,-24v24m24,-12v12m24,-12v12m24,-12v12m24,-12v12m24,-24v24m24,-12v12m24,-12v12m24,-12v12m24,-12v12m24,-24v24" style="stroke: black; stroke-width: 1;"></path>
     <g font-family="Arial" font-size="28" space="preserve" fill="black" text-anchor="middle">
      <text dy=".8em" transform="translate(0,6)">
       -4
      </text>
      <text dy=".8em" transform="translate(120,6)">
       -3
      </text>
      <text dy=".8em" transform="translate(240,6)">
       -2
      </text>
      <text dy=".8em" transform="translate(360,6)">
       -1
      </text>
      <text dy=".8em" transform="translate(480,6)">
       0
      </text>
      <text dy=".8em" transform="translate(600,6)">
       1
      </text>
      <text dy=".8em" transform="translate(720,6)">
       2
      </text>
      <text dy=".8em" transform="translate(840,6)">
       3
      </text>
      <text dy=".8em" transform="translate(960,6)">
       4
      </text>
     </g>
    </g>
    <g>
     <path d="M0,0v640M36,640h-36m18,-25h-18m18,-24h-18m18,-25h-18m36,-25h-36m18,-25h-18m18,-24h-18m18,-25h-18m36,-25h-36m18,-24h-18m18,-25h-18m18,-25h-18m36,-25h-36m18,-24h-18m18,-25h-18m18,-25h-18m36,-25h-36m18,-24h-18m18,-25h-18m18,-25h-18m36,-24h-36m18,-25h-18m18,-25h-18m18,-25h-18m36,-24h-36m18,-25h-18" style="stroke: black; stroke-width: 1;"></path>
     <g font-family="Arial" font-size="28" space="preserve" fill="black" text-anchor="end">
      <text dy=".4em" transform="translate(-4,640)">
       0
      </text>
      <text dy=".4em" transform="translate(-4,541)">
       200
      </text>
      <text dy=".4em" transform="translate(-4,442)">
       400
      </text>
      <text dy=".4em" transform="translate(-4,343)">
       600
      </text>
      <text dy=".4em" transform="translate(-4,244)">
       800
      </text>
      <text dy=".4em" transform="translate(-4,146)">
       1000
      </text>
      <text dy=".4em" transform="translate(-4,47)">
       1200
      </text>
     </g>
    </g>
   </g>
  </g>
  <g transform="translate(120,4)" font-family="Arial" font-size="40" space="preserve">
   <text fill="black" text-anchor="middle" dy=".8em" transform="translate(480)">
    This is the px distribution
   </text>
  </g>
  <g transform="translate(936,52)" font-family="Arial" font-size="25" space="preserve" fill="black">
   <path d="M0,0H240V128H0Z" style="fill: white; stroke: black; stroke-width: 1;"></path>
   <text text-anchor="middle" dy=".4em" transform="translate(120,16)">
    hpx
   </text>
   <text text-anchor="start" dy=".4em" transform="translate(12,48)">
    Entries
   </text>
   <text text-anchor="end" dy=".4em" transform="translate(228,48)">
    25000
   </text>
   <text text-anchor="start" dy=".4em" transform="translate(12,80)">
    Mean
   </text>
   <text text-anchor="end" dy=".4em" transform="translate(228,80)">
    0.003163
   </text>
   <text text-anchor="start" dy=".4em" transform="translate(12,112)">
    Std Dev
   </text>
   <text text-anchor="end" dy=".4em" transform="translate(228,112)">
    1.004
   </text>
   <path d="M0,32h240" style="stroke: black; stroke-width: 1;"></path>
  </g>
 </g>
</svg>

<svg xmlns="http://www.w3.org/2000/svg" viewBox="0 0 1200 800" preserveAspectRatio="none" width="1200" height="800">
 <path d="M0,0H1200V800H0Z" style="fill: white;"></path>
 <g>
  <g transform="translate(120,80)">
   <path d="M0,0H960V640H0Z" style="fill: white; stroke: black; stroke-width: 1;"></path>
   <svg x="0" y="0" overflow="hidden" width="960" height="640" viewBox="0 0 960 640">
    <g>
     <path d="M0,640h19v-1h10v1h38v-1h10v-1h19v-1h10v1h9v-3h10v-2h19v-4h19v-5h10v-3h9v-8h10v3h10v-10h9v4h10v-12h9v-15h20v-3h9v-25h10v-4h9v-8h10v-11h10v-33h9v-2h10v-18h9v-9h10v-25h10v-10h9v-36h10v-24h19v-28h10v-18h9v-49h10v22h9v-37h10v31h10v-37h9v-19h10v12h9v17h10v-25h10v-31h9v51h10v2h9v8h10v3h10v34h9v12h10v8h9v18h10v11h10v7h9v25h10v30h9v9h10v15h10v44h9v-4h10v20h9v17h10v11h10v15h9v13h10v16h9v-1h10v15h10v4h9v11h10v2h9v8h10v6h10v-6h9v8h10v4h9v3h20v2h19v5h9v-3h10v1h10v2h28v1h58" style="stroke-linejoin: miter; stroke: #00009a; stroke-width: 1; fill: none;"></path>
    </g>
   </svg>
   <g>
    <g transform="translate(0,640)">
     <path d="M0,0h960M0,-24V0M24,-12V0M48,-12V0M72,-12V0M96,-12V0M120,-24V0M144,-12V0M168,-12V0M192,-12V0M216,-12V0M240,-24V0M264,-12V0M288,-12V0M312,-12V0M336,-12V0M360,-24V0M384,-12V0M408,-12V0M432,-12V0M456,-12V0M480,-24V0M504,-12V0M528,-12V0M552,-12V0M576,-12V0M600,-24V0M624,-12V0M648,-12V0M672,-12V0M696,-12V0M720,-24V0M744,-12V0M768,-12V0M792,-12V0M816,-12V0M840,-24V0M864,-12V0M888,-12V0M912,-12V0M936,-12V0M960,-24V0" style="stroke: black; stroke-width: 1;"></path>
     <g font-family="Arial" font-size="28" space="preserve" fill="black" text-anchor="middle">
      <text dy=".8em" transform="translate(0,6)">
       -4
      </text>
      <text dy=".8em" transform="translate(120,6)">
       -3
      </text>
      <text dy=".8em" transform="translate(240,6)">
       -2
      </text>
      <text dy=".8em" transform="translate(360,6)">
       -1
      </text>
      <text dy=".8em" transform="translate(480,6)">
       0
      </text>
      <text dy=".8em" transform="translate(600,6)">
       1
      </text>
      <text dy=".8em" transform="translate(720,6)">
       2
      </text>
      <text dy=".8em" transform="translate(840,6)">
       3
      </text>
      <text dy=".8em" transform="translate(960,6)">
       4
      </text>
     </g>
    </g>
    <g>
     <path d="M0,0v640M36,640H0M18,615H0M18,591H0M18,566H0M36,541H0M18,516H0M18,492H0M18,467H0M36,442H0M18,418H0M18,393H0M18,368H0M36,343H0M18,319H0M18,294H0M18,269H0M36,244H0M18,220H0M18,195H0M18,170H0M36,146H0M18,121H0M18,96H0M18,71H0M36,47H0M18,22H0" style="stroke: black; stroke-width: 1;"></path>
     <g font-family="Arial" font-size="28" space="preserve" fill="black" text-anchor="end">
      <text dy=".4em" transform="translate(-4,640)">
       0
      </text>
      <text dy=".4em" transform="translate(-4,541)">
       200
      </text>
      <text dy=".4em" transform="translate(-4,442)">
       400
      </text>
      <text dy=".4em" transform="translate(-4,343)">
       600
      </text>
      <text dy=".4em" transform="translate(-4,244)">
       800
      </text>
      <text dy=".4em" transform="translate(-4,146)">
       1000
      </text>
      <text dy=".4em" transform="translate(-4,47)">
       1200
      </text>
     </g>
    </g>
   </g>
  </g>
  <g transform="translate(120,4)" font-family="Arial" font-size="40" space="preserve">
   <text fill="black" text-anchor="middle" dy=".8em" transform="translate(480)">
    This is the px distribution
   </text>
  </g>
  <g transform="translate(936,52)" font-family="Arial" font-size="25" space="preserve" fill="black">
   <path d="M0,0H240V128H0Z" style="fill: white; stroke: black; stroke-width: 1;"></path>
   <text text-anchor="middle" dy=".4em" transform="translate(120,16)">
    hpx
   </text>
   <text text-anchor="start" dy=".4em" transform="translate(12,48)">
    Entries
   </text>
   <text text-anchor="end" dy=".4em" transform="translate(228,48)">
    25000
   </text>
   <text text-anchor="start" dy=".4em" transform="translate(12,80)">
    Mean
   </text>
   <text text-anchor="end" dy=".4em" transform="translate(228,80)">
    0.003163
   </text>
   <text text-anchor="start" dy=".4em" transform="translate(12,112)">
    Std Dev
   </text>
   <text text-anchor="end" dy=".4em" transform="translate(228,112)">
    1.004
   </text>
   <path d="M0,32h240" style="stroke: black; stroke-width: 1;"></path>
  </g>
 </g>
</svg>
